lib/brands/logos/google-maps.svg

<svg xmlns="http://www.w3.org/2000/svg" fill="none" aria-hidden="true" viewBox="0 0 256 53"><g id="Google Maps"><g id="Group"><g id="Union"><path fill="#63666A" fill-rule="evenodd" d="M159.587 34.1004L162.709 36.1813C161.704 37.6727 159.275 40.2402 155.077 40.2402C149.875 40.2402 146.117 36.2129 146.117 31.0819C146.117 25.6304 149.911 21.9196 154.626 21.9196C159.382 21.9196 161.704 25.7017 162.467 27.7509L162.883 28.7913L150.635 33.8551C151.572 35.6947 153.028 36.6323 155.077 36.6323C157.123 36.6323 158.547 35.6235 159.587 34.1004ZM149.978 30.805L158.167 27.4028C157.716 26.2595 156.363 25.4603 154.769 25.4603C152.72 25.4603 149.875 27.2643 149.978 30.805Z" clip-rule="evenodd"/><path fill="#63666A" d="M139.74 39.6864H143.763V12.7613H139.74V39.6864Z"/><path fill="#63666A" fill-rule="evenodd" d="M136.709 22.4774V38.9229C136.709 45.6877 132.722 48.4649 128.002 48.4649C123.559 48.4649 120.889 45.482 119.884 43.053L123.389 41.5932C124.014 43.0846 125.541 44.853 128.006 44.853C131.024 44.853 132.9 42.9818 132.9 39.4767V38.1593H132.761C131.859 39.271 130.123 40.2402 127.939 40.2402C123.358 40.2402 119.16 36.2485 119.16 31.1136C119.16 25.943 123.358 21.9196 127.939 21.9196C130.126 21.9196 131.859 22.8889 132.761 23.9649H132.9V22.4735C132.896 22.4774 136.709 22.4774 136.709 22.4774ZM133.173 31.1136C133.173 27.8894 131.021 25.5276 128.279 25.5276C125.506 25.5276 123.18 27.8894 123.18 31.1136C123.18 34.3061 125.506 36.6323 128.279 36.6323C131.021 36.6323 133.173 34.3061 133.173 31.1136Z" clip-rule="evenodd"/><path fill="#63666A" fill-rule="evenodd" d="M96.7411 31.0819C96.7411 36.3554 92.6862 40.2402 87.7134 40.2402C82.7406 40.2402 78.6856 36.3554 78.6856 31.0819C78.6856 25.7729 82.7406 21.9236 87.7134 21.9236C92.6901 21.9236 96.7411 25.7729 96.7411 31.0819ZM92.793 31.0819C92.793 27.7825 90.4431 25.5315 87.7173 25.5315C84.9916 25.5315 82.6417 27.7865 82.6417 31.0819C82.6417 34.3417 84.9916 36.6323 87.7173 36.6323C90.4391 36.6323 92.793 34.3417 92.793 31.0819Z" clip-rule="evenodd"/><path fill="#63666A" fill-rule="evenodd" d="M116.98 31.0819C116.98 36.3554 112.925 40.2402 107.953 40.2402C102.98 40.2402 98.9249 36.3554 98.9249 31.0819C98.9249 25.7729 102.98 21.9236 107.953 21.9236C112.925 21.9236 116.98 25.7729 116.98 31.0819ZM113.028 31.0819C113.028 27.7825 110.678 25.5315 107.953 25.5315C105.227 25.5315 102.877 27.7865 102.877 31.0819C102.877 34.3417 105.227 36.6323 107.953 36.6323C110.678 36.6323 113.028 34.3417 113.028 31.0819Z" clip-rule="evenodd"/><path fill="#63666A" d="M63.2213 40.2402C55.3804 40.2402 48.7896 33.8551 48.7896 26.0142C48.7896 18.1732 55.3843 11.7881 63.2253 11.7881C67.5651 11.7881 70.6508 13.4892 72.977 15.7126L70.2354 18.4541C68.5699 16.8915 66.315 15.677 63.2253 15.677C57.5008 15.677 53.0226 20.2937 53.0226 26.0181C53.0226 31.7426 57.5008 36.3554 63.2253 36.3554C66.9361 36.3554 69.0526 34.8639 70.4095 33.5109C71.5212 32.4032 72.2491 30.805 72.526 28.6212H63.2253V24.7364H76.3041C76.4465 25.4287 76.5137 26.2634 76.5137 27.1654C76.5137 30.081 75.7146 33.689 73.1511 36.2565C70.6469 38.8556 67.4543 40.2402 63.2213 40.2402Z"/><path fill="#63666A" d="M172.388 39.4329V15.5312H175.459L183.771 30.0859H183.905L192.217 15.5312H195.288V39.4329H192.217V25.2455L192.35 21.2396H192.217L184.739 34.3588H182.936L175.459 21.2396H175.325L175.459 25.2455V39.4329H172.388Z"/><path fill="#63666A" fill-rule="evenodd" d="M200.379 38.4648C201.547 39.4663 202.999 39.967 204.735 39.967C207.089 39.967 208.891 39.0323 210.11 37.1629H210.243V39.4329H213.181V29.5518C213.181 27.3318 212.497 25.596 211.111 24.3775C209.726 23.1591 207.99 22.5415 205.904 22.5415C204.084 22.5415 202.615 22.9588 201.497 23.7933C200.379 24.6279 199.644 25.5292 199.26 26.514L202.065 27.7157C202.332 26.9813 202.832 26.3971 203.55 25.9799C204.268 25.5626 205.086 25.3456 205.97 25.3456C207.172 25.3456 208.19 25.7128 209.008 26.4305C209.826 27.1482 210.243 28.1163 210.243 29.3181V29.7854C209.092 29.1178 207.606 28.784 205.803 28.784C203.784 28.784 202.081 29.2847 200.696 30.3029C199.311 31.321 198.626 32.7064 198.626 34.4923C198.626 36.1448 199.21 37.4634 200.379 38.4648ZM208.691 35.7442C207.656 36.6956 206.504 37.1629 205.236 37.1629C204.351 37.1629 203.55 36.9292 202.866 36.4619C202.181 35.9945 201.831 35.3603 201.831 34.5591C201.831 33.6912 202.215 32.9401 202.966 32.2891C203.717 31.6381 204.852 31.321 206.338 31.321C208.073 31.321 209.375 31.6715 210.243 32.3893C210.243 33.6745 209.726 34.7928 208.691 35.7442Z" clip-rule="evenodd"/><path fill="#63666A" fill-rule="evenodd" d="M225.148 39.967C223.896 39.967 222.778 39.7 221.793 39.1658C220.809 38.6317 220.058 37.9641 219.573 37.1629H219.44L219.573 39.4329V46.6435H216.502V23.0756H219.44V25.3456H219.573C220.058 24.5444 220.809 23.8768 221.793 23.3427C222.778 22.8086 223.896 22.5415 225.148 22.5415C227.268 22.5415 229.087 23.3761 230.623 25.0452C232.159 26.7143 232.926 28.784 232.926 31.2543C232.926 33.7245 232.159 35.7942 230.623 37.4634C229.087 39.1325 227.268 39.967 225.148 39.967ZM224.648 37.1629C226.066 37.1629 227.301 36.6288 228.32 35.5439C229.338 34.4589 229.855 33.0402 229.855 31.2543C229.855 29.4683 229.338 28.0496 228.32 26.9646C227.301 25.8797 226.066 25.3456 224.648 25.3456C223.195 25.3456 221.977 25.8797 220.959 26.948C219.941 28.0162 219.44 29.4516 219.44 31.2543C219.44 33.0569 219.941 34.4923 220.959 35.5606C221.977 36.6288 223.212 37.1629 224.648 37.1629Z" clip-rule="evenodd"/><path fill="#63666A" d="M237.299 38.6317C238.485 39.5164 240.003 39.967 241.823 39.967C243.709 39.967 245.261 39.4663 246.463 38.4982C247.665 37.5134 248.266 36.295 248.266 34.8262C248.266 33.7412 247.898 32.7565 247.164 31.8885C246.43 31.0206 245.295 30.403 243.759 30.0525L240.521 29.2847C239.069 28.9509 238.351 28.3166 238.351 27.3819C238.351 26.731 238.668 26.2302 239.286 25.8463C239.903 25.4624 240.671 25.2788 241.589 25.2788C243.475 25.2788 244.727 25.9966 245.328 27.4487L247.998 26.3471C247.514 25.1286 246.697 24.1772 245.562 23.5263C244.427 22.8753 243.141 22.5415 241.689 22.5415C239.937 22.5415 238.418 22.9922 237.133 23.8935C235.847 24.7948 235.213 25.9632 235.213 27.4153C235.213 28.6838 235.68 29.6853 236.615 30.4364C237.55 31.1875 238.535 31.6882 239.586 31.9553L242.891 32.7565C244.377 33.1404 245.128 33.8581 245.128 34.9263C245.128 35.6106 244.827 36.1781 244.21 36.5954C243.592 37.0127 242.808 37.2297 241.856 37.2297C239.77 37.2297 238.284 36.2115 237.416 34.1585L234.679 35.2935C235.23 36.6288 236.114 37.7471 237.299 38.6317Z"/></g><g id="Group_2"><path id="path835" fill="#34A853" d="M16.2124 37.1187C17.5772 38.8237 18.9619 40.96 19.6898 42.2537C20.576 43.935 20.9399 45.0704 21.6006 47.0959C21.9883 48.2115 22.3522 48.5517 23.1237 48.5517C23.9663 48.5517 24.35 47.9821 24.6468 47.0959C25.2599 45.1851 25.7386 43.7332 26.4863 42.3447C27.9619 39.6862 29.8292 37.3204 31.645 35.0497C32.1435 34.4127 35.3282 30.6624 36.7603 27.6874C36.7603 27.6874 38.5088 24.4355 38.5088 19.89C38.5088 15.6411 36.78 12.686 36.78 12.686L31.7796 14.0271L28.7334 22.0263L27.9817 23.1181L27.8235 23.3238L27.6178 23.5731L27.2775 23.9806L26.7791 24.479L24.0731 26.6826L17.3241 30.5912L16.2124 37.1187Z"/><path id="path833" fill="#FBBC04" d="M9.23389 27.1415C10.8915 30.9155 14.0524 34.211 16.2124 37.1187L27.6455 23.5731C27.6455 23.5731 26.0314 25.6856 23.1237 25.6856C19.8718 25.6856 17.237 23.0944 17.237 19.8227C17.237 17.5717 18.5781 16.0288 18.5781 16.0288L10.8242 18.0979L9.23389 27.1415Z"/><path id="path831" fill="#4285F4" d="M27.78 5.11797C31.5739 6.34435 34.8258 8.91184 36.7801 12.7097L27.6415 23.5968C27.6415 23.5968 28.9827 22.0302 28.9827 19.8029C28.9827 16.46 26.1659 13.94 23.1197 13.94C20.2318 13.94 18.5742 16.0328 18.5742 16.0328V9.16503L27.78 5.11797Z"/><path id="path829" fill="#1A73E8" d="M11.3228 9.91273C13.5935 7.20678 17.5734 4.41379 23.0723 4.41379C25.7308 4.41379 27.7523 5.11797 27.7523 5.11797L18.5742 16.0288H12.0744L11.3228 9.91273Z"/><path id="path827" fill="#EA4335" d="M9.23397 27.1414C9.23397 27.1414 7.73462 24.1625 7.73462 19.8701C7.73462 15.8033 9.32496 12.2547 11.3465 9.93643L18.598 16.0486L9.23397 27.1414Z"/></g></g></g></svg>

<svg xmlns="http://www.w3.org/2000/svg" fill="none" aria-hidden="true" viewBox="0 0 256 53"><path fill="#63666A" fill-rule="evenodd" d="m159.587 34.1 3.122 2.081c-1.005 1.492-3.434 4.06-7.632 4.06-5.202 0-8.96-4.028-8.96-9.159 0-5.451 3.794-9.162 8.509-9.162 4.756 0 7.078 3.782 7.841 5.831l.416 1.04-12.248 5.064c.937 1.84 2.393 2.777 4.442 2.777 2.046 0 3.47-1.008 4.51-2.532Zm-9.609-3.295 8.189-3.402c-.451-1.143-1.804-1.943-3.398-1.943-2.049 0-4.894 1.804-4.791 5.345Z" clip-rule="evenodd"/><path fill="#63666A" d="M139.74 39.687h4.023V12.76h-4.023v26.926Z"/><path fill="#63666A" fill-rule="evenodd" d="M136.709 22.477v16.446c0 6.765-3.987 9.542-8.707 9.542-4.443 0-7.113-2.983-8.118-5.412l3.505-1.46c.625 1.492 2.152 3.26 4.617 3.26 3.018 0 4.894-1.871 4.894-5.376v-1.318h-.139c-.902 1.112-2.639 2.081-4.822 2.081-4.581 0-8.779-3.991-8.779-9.126 0-5.171 4.198-9.194 8.779-9.194 2.187 0 3.92.969 4.822 2.045h.139v-1.491c-.004.003 3.809.003 3.809.003Zm-3.536 8.637c0-3.225-2.153-5.586-4.894-5.586-2.773 0-5.099 2.361-5.099 5.586 0 3.192 2.326 5.518 5.099 5.518 2.741 0 4.894-2.326 4.894-5.518Zm-36.432-.032c0 5.273-4.055 9.158-9.028 9.158-4.972 0-9.027-3.885-9.027-9.158 0-5.31 4.054-9.158 9.027-9.158 4.977 0 9.028 3.849 9.028 9.158Zm-3.948 0c0-3.3-2.35-5.55-5.076-5.55-2.725 0-5.075 2.255-5.075 5.55 0 3.26 2.35 5.55 5.075 5.55 2.722 0 5.076-2.29 5.076-5.55Zm24.187 0c0 5.273-4.055 9.158-9.027 9.158-4.973 0-9.028-3.885-9.028-9.158 0-5.31 4.055-9.158 9.028-9.158 4.972 0 9.027 3.849 9.027 9.158Zm-3.952 0c0-3.3-2.35-5.55-5.075-5.55-2.726 0-5.076 2.255-5.076 5.55 0 3.26 2.35 5.55 5.076 5.55 2.725 0 5.075-2.29 5.075-5.55Z" clip-rule="evenodd"/><path fill="#63666A" d="M63.221 40.24c-7.84 0-14.431-6.385-14.431-14.226 0-7.84 6.594-14.226 14.435-14.226 4.34 0 7.426 1.701 9.752 3.925l-2.742 2.741c-1.665-1.563-3.92-2.777-7.01-2.777-5.724 0-10.203 4.617-10.203 10.341 0 5.725 4.479 10.337 10.203 10.337 3.711 0 5.827-1.491 7.184-2.844 1.112-1.108 1.84-2.706 2.117-4.89h-9.3v-3.885h13.078c.142.693.21 1.527.21 2.43 0 2.915-.8 6.523-3.363 9.09-2.504 2.6-5.697 3.984-9.93 3.984Zm109.167-.807V15.531h3.071l8.312 14.555h.133l8.313-14.555h3.071v23.902h-3.071V25.245l.133-4.005h-.133l-7.478 13.119h-1.803l-7.477-13.12h-.134l.134 4.006v14.188h-3.071Z"/><path fill="#63666A" fill-rule="evenodd" d="M200.379 38.465c1.168 1.001 2.62 1.502 4.356 1.502 2.354 0 4.156-.935 5.375-2.804h.133v2.27h2.938v-9.881c0-2.22-.685-3.956-2.07-5.174-1.385-1.219-3.121-1.836-5.208-1.836-1.819 0-3.288.417-4.406 1.251-1.118.835-1.853 1.736-2.237 2.721l2.805 1.202c.267-.735.767-1.319 1.485-1.736a4.764 4.764 0 0 1 2.42-.634c1.202 0 2.22.367 3.038 1.085.818.717 1.235 1.685 1.235 2.887v.467c-1.152-.667-2.637-1-4.44-1-2.019 0-3.722.5-5.107 1.518-1.386 1.018-2.07 2.403-2.07 4.19 0 1.652.584 2.97 1.753 3.972Zm8.312-2.72c-1.035.95-2.187 1.418-3.455 1.418-.885 0-1.686-.234-2.37-.701-.685-.467-1.035-1.102-1.035-1.903 0-.868.384-1.619 1.135-2.27.751-.65 1.886-.968 3.371-.968 1.736 0 3.038.35 3.906 1.068 0 1.285-.517 2.404-1.552 3.355Zm16.457 4.222c-1.252 0-2.37-.267-3.355-.801-.984-.534-1.736-1.202-2.22-2.003h-.133l.133 2.27v7.21h-3.071V23.077h2.938v2.27h.133c.484-.802 1.236-1.47 2.22-2.003.985-.534 2.103-.801 3.355-.801 2.12 0 3.939.834 5.475 2.503 1.536 1.67 2.303 3.74 2.303 6.21 0 2.47-.767 4.54-2.303 6.208-1.536 1.67-3.355 2.504-5.475 2.504Zm-.5-2.804c1.418 0 2.653-.534 3.672-1.62 1.018-1.084 1.535-2.503 1.535-4.289 0-1.786-.517-3.204-1.535-4.29-1.019-1.084-2.254-1.618-3.672-1.618-1.453 0-2.671.534-3.689 1.602-1.018 1.068-1.519 2.504-1.519 4.306 0 1.803.501 3.238 1.519 4.307 1.018 1.068 2.253 1.602 3.689 1.602Z" clip-rule="evenodd"/><path fill="#63666A" d="M237.299 38.632c1.185.884 2.704 1.335 4.524 1.335 1.886 0 3.438-.5 4.64-1.469 1.202-.984 1.802-2.203 1.802-3.672 0-1.085-.367-2.07-1.101-2.937-.735-.868-1.87-1.486-3.405-1.836l-3.238-.768c-1.452-.334-2.17-.968-2.17-1.903 0-.651.317-1.152.935-1.536.617-.384 1.385-.567 2.303-.567 1.886 0 3.138.718 3.739 2.17l2.67-1.102a5.524 5.524 0 0 0-2.436-2.82c-1.135-.652-2.421-.985-3.873-.985-1.752 0-3.271.45-4.556 1.352-1.286.9-1.92 2.07-1.92 3.521 0 1.269.467 2.27 1.402 3.021.935.752 1.92 1.252 2.971 1.52l3.305.8c1.485.384 2.237 1.102 2.237 2.17 0 .685-.301 1.252-.918 1.67-.618.417-1.403.634-2.354.634-2.086 0-3.572-1.018-4.44-3.071l-2.737 1.135c.551 1.335 1.435 2.453 2.62 3.338Z"/><path fill="#34A853" d="M16.212 37.119a42.961 42.961 0 0 1 3.478 5.135c.886 1.681 1.25 2.817 1.91 4.842.388 1.116.752 1.456 1.524 1.456.842 0 1.226-.57 1.523-1.456.613-1.91 1.092-3.363 1.84-4.751 1.475-2.659 3.342-5.024 5.158-7.295.499-.637 3.683-4.388 5.115-7.362 0 0 1.749-3.252 1.749-7.798 0-4.249-1.729-7.204-1.729-7.204l-5 1.341-3.047 8-.751 1.091-.159.206-.205.25-.34.407-.499.498-2.706 2.204-6.749 3.908-1.112 6.528Z"/><path fill="#FBBC04" d="M9.234 27.142c1.658 3.774 4.818 7.07 6.978 9.977l11.433-13.546s-1.614 2.113-4.521 2.113c-3.252 0-5.887-2.591-5.887-5.863 0-2.251 1.341-3.794 1.341-3.794l-7.754 2.069-1.59 9.044Z"/><path fill="#4285F4" d="M27.78 5.118c3.794 1.226 7.046 3.794 9 7.592l-9.138 10.887s1.34-1.567 1.34-3.794c0-3.343-2.816-5.863-5.862-5.863-2.888 0-4.546 2.093-4.546 2.093V9.165l9.206-4.047Z"/><path fill="#1A73E8" d="M11.323 9.913c2.27-2.706 6.25-5.5 11.75-5.5 2.658 0 4.68.705 4.68.705l-9.179 10.91h-6.5l-.751-6.115Z"/><path fill="#EA4335" d="M9.234 27.142s-1.5-2.98-1.5-7.272c0-4.067 1.59-7.615 3.613-9.933l7.25 6.112-9.363 11.093Z"/></svg>
